Assets/Icons/screwdriver.svg

<svg xmlns="http://www.w3.org/2000/svg" viewBox="0 0 512 512" style="height: 512px; width: 512px;"><path d="M0 0h512v512H0z" fill="#000000" fill-opacity="0"></path><g class="" transform="translate(0,0)" style="touch-action: none;"><path d="M68.906 19.344c-2.614.03-5.178.298-7.687.75C49.235 20.75 38.59 25.42 30.812 33.5c-9.657 10.03-14.27 24.77-11.875 40.594.012.084.05.165.062.25.708 13.018 6.502 26.876 19.53 39.906l86.126 86.125c30.255 2.728 53.004 26.627 53.906 57.5l.157 5.625c.8 5.8 4.26 10.397 8.874 12.78 5.734 2.965 12.387 3.148 19.625-4.092l64.436-64.407c7.72-7.718 6.865-12.713 3.5-18.155-3.365-5.442-11.242-10.094-18.78-10.094H255.968c-30.125-1.296-53.427-23.484-56.5-53l-86.595-86.593C97.59 24.652 82.44 19.183 68.905 19.345zM65 38.187c5.44.03 11.493 1.387 17.97 4.47l92.968 92.968-13.22 13.22L54 40.124c3.284-1.25 6.967-1.96 11-1.938zM38.344 56.47L146.75 164.843l-13.22 13.22-90.405-90.408c-3.155-5.842-4.966-11.366-5.72-16.344-.85-5.62-.425-10.577.94-14.843zM453.22 169.687l1.842 18.593-34.593-17.81c-11.45 2.664-21.948 7.76-29.408 14.624-7.198 6.625-11.776 14.544-12.687 24.594l111.563-13.532c-3.744-9.308-10.448-15.842-19.25-20.53-5.2-2.77-11.146-4.75-17.47-5.94zm5.592 49.062l-43.343 5.28c1.224 13.065 2.98 26.084 5.28 38.94l40.063-29.22c-.582-5.014-1.26-10.008-2-15zm-188.25 16.563l-36.812 36.75 16.625 16.625 36.813-36.75-16.625-16.625zm192.25 20.093l-37.968 27.72c2.35 10.382 5.055 20.63 8.125 30.655l30.81-22.467c.176-11.902-.154-23.9-.967-35.907zm-173.968 21.28l-12.75 12.752L388.406 401.75l3.313 3.313-.69 4.625-4.342 29.968 73 46.688 26.093-26.094-46.686-72.97-30 4.345-4.625.688-3.314-3.313-112.312-112.313zM462.75 315.19l-23.563 17.187c4.596 12.718 9.778 25.015 15.594 36.75 3.98-17.394 6.615-35.487 7.97-53.938zm-326.25 4.28c-7.316.176-14.165 2.543-20.72 6.5-7.282 4.4-13.982 10.982-19.436 18.782l3.25 37.188-16.53-5.032c-1.325 7.755-1.367 15.408.06 22.25 2.003 9.588 6.414 17.628 14.595 23.563l45.56-102.75c-1.796-.284-3.57-.473-5.31-.5-.493-.01-.982-.013-1.47 0zm10.25 38.782l-17.688 39.938c11.83 5.634 23.894 10.798 36.094 15.406l-4.562-49.375c-4.585-2.063-9.196-4.053-13.844-5.97zm33.5 15.344l4.344 46.844c10.115 3.3 20.29 6.216 30.47 8.718l-3.5-37.97c-10.13-6.25-20.59-12.137-31.314-17.592zm51.313 30.72l2.687 29.03c13.26 2.568 26.457 4.417 39.5 5.437-12.892-12.322-27.05-23.852-42.188-34.467z" fill="#fff" fill-opacity="1"></path></g></svg>

<?xml version="1.0" encoding="UTF-8" standalone="no"?>
<!DOCTYPE svg PUBLIC "-//W3C//DTD SVG 1.1//EN" "http://www.w3.org/Graphics/SVG/1.1/DTD/svg11.dtd">
<svg width="100%" height="100%" viewBox="0 0 512 512" version="1.1" xmlns="http://www.w3.org/2000/svg" xmlns:xlink="http://www.w3.org/1999/xlink" xml:space="preserve" xmlns:serif="http://www.serif.com/" style="fill-rule:evenodd;clip-rule:evenodd;stroke-linejoin:round;stroke-miterlimit:2;">
    <path d="M68.906,19.344C66.292,19.374 63.728,19.642 61.219,20.094C49.235,20.75 38.59,25.42 30.812,33.5C21.155,43.53 16.542,58.27 18.937,74.094C18.949,74.178 18.987,74.259 18.999,74.344C19.707,87.362 25.501,101.22 38.529,114.25L124.655,200.375C154.91,203.103 177.659,227.002 178.561,257.875L178.718,263.5C179.518,269.3 182.978,273.897 187.592,276.28C193.326,279.245 199.979,279.428 207.217,272.188L271.653,207.781C279.373,200.063 278.518,195.068 275.153,189.626C271.788,184.184 263.911,179.532 256.373,179.532L255.968,179.532C225.843,178.236 202.541,156.048 199.468,126.532L112.873,39.939C97.59,24.652 82.44,19.183 68.905,19.345L68.906,19.344ZM65,38.187C70.44,38.217 76.493,39.574 82.97,42.657L175.938,135.625L162.718,148.845L54,40.124C57.284,38.874 60.967,38.164 65,38.186L65,38.187ZM38.344,56.47L146.75,164.843L133.53,178.063L43.125,87.655C39.97,81.813 38.159,76.289 37.405,71.311C36.555,65.691 36.98,60.734 38.345,56.468L38.344,56.47ZM270.562,235.312L233.75,272.062L250.375,288.687L287.188,251.937L270.563,235.312L270.562,235.312ZM288.844,276.685L276.094,289.437L388.406,401.75L391.719,405.063L391.029,409.688L386.687,439.656L459.687,486.344L485.78,460.25L439.094,387.28L409.094,391.625L404.469,392.313L401.155,389L288.843,276.687L288.844,276.685Z" style="fill:white;fill-rule:nonzero;"/>
</svg>
